X:1001
T:Scale Navigation Low G
O:Kevin Fraser
Z:Kevin Fraser
Q:1/4=120
K:HP
M:4/4
L:1/4
R:March
V:gstem=up stem=down
%%MIDI gracedivider 4
%%MIDI gchord
%%MIDI beatstring
[| G  A  G  B  |  G  c  G  d  |  G  e  G  f  |  G  g   G  a  |  a  G  g   G  |  f   G  e  G |  d  G  c  G  |  B  G   A  G  |]
w: G  A  G  B  |  G  c  G  d  |  G  e  G  f  |  G  g   G  a  |  a  G  g   G  |  f   G  e  G |  d  G  c  G  |  B  G   A  G  :|
w: em en em io  |  em o  em a  |  em e  em ve |  em di  em I  |  I  em di  em |  ve  em e  em|  a  em o  em | io  em  en em :| 
w: em en em oh |  em oh em ah |  em ay em vay|  em dee em ee |  ee em dee em |  vay em ay em|  ay em oh em |  oh em  en em :|

